multiqc/multiqc_icon_dark.svg

<?xml version="1.0" encoding="utf-8"?>
<!-- Generator: Adobe Illustrator 28.3.0, SVG Export Plug-In . SVG Version: 6.00 Build 0)  -->
<svg version="1.1" id="Layer_1" xmlns="http://www.w3.org/2000/svg" xmlns:xlink="http://www.w3.org/1999/xlink" x="0px" y="0px"
	 viewBox="0 0 500 500" style="enable-background:new 0 0 500 500;" xml:space="preserve">
<style type="text/css">
	.st0{fill:#160F26;}
</style>
<path class="st0" d="M171.2,244.8c2.6-39.4,34.3-71.1,73.8-73.5v-46.1c-65,2.6-117.2,54.7-119.9,119.6H171.2z"/>
<path class="st0" d="M244.7,329.1c-39.5-2.6-71.1-34.3-73.5-73.8h-46.1c2.6,65,54.7,117.2,119.6,119.9V329.1z"/>
<path class="st0" d="M255.5,171.3c39.5,2.6,71.1,34.3,73.5,73.8h46.1c-2.6-65-54.7-117.2-119.6-119.9V171.3z"/>
<path class="st0" d="M375.1,329.1c-39.5-2.6-71.1-34.3-73.5-73.8h-46.1c2.6,65,54.7,117.2,119.6,119.9V329.1z"/>
</svg>

<svg width="500" height="500" viewBox="0 0 500 500" fill="none" xmlns="http://www.w3.org/2000/svg">
<path d="M171.2 244.8C173.8 205.4 205.5 173.7 245 171.3V125.2C180 127.8 127.8 179.9 125.1 244.8H171.2Z" fill="#201637"/>
<path d="M244.7 329.1C205.2 326.5 173.6 294.8 171.2 255.3H125.1C127.7 320.3 179.8 372.5 244.7 375.2V329.1Z" fill="#201637"/>
<path d="M255.5 171.3C295 173.9 326.6 205.6 329 245.1H375.1C372.5 180.1 320.4 127.9 255.5 125.2V171.3Z" fill="#201637"/>
<path d="M375.1 329.1C335.6 326.5 304 294.8 301.6 255.3H255.5C258.1 320.3 310.2 372.5 375.1 375.2V329.1Z" fill="#201637"/>
</svg>
